src/icons/solid/media/download.svg

<svg width="24" height="24" viewBox="0 0 24 24" fill="none" xmlns="http://www.w3.org/2000/svg">
<g clip-path="url(#clip0_1_3288)">
<path d="M22.4551 16.4127C22.7543 16.4128 23 16.6544 23 16.9478V18.7291C23 20.5319 21.5036 21.9994 19.665 21.9996H4.33496C2.49643 21.9994 1 20.5319 1 18.7291V16.9683C1.00011 16.675 1.24579 16.4343 1.54492 16.4341H2.98828C3.28753 16.4341 3.53309 16.6749 3.5332 16.9683V18.4048C3.53326 19.2118 3.80131 19.5992 5.27637 19.5992H18.7236C20.2094 19.5992 20.4667 19.2118 20.4668 18.4048V16.9576C20.4671 16.6643 20.7126 16.4234 21.0117 16.4234H22.4551V16.4127Z" fill="#1D1B20"/>
<path d="M12 3.30817C12.9621 3.30818 13.7422 4.01045 13.7529 4.88043V10.5533C13.7636 10.6265 13.8384 10.6787 13.9131 10.6998H16.1797C16.5111 10.6998 16.8102 10.889 16.9385 11.1929C17.0668 11.4969 16.992 11.8432 16.7568 12.0738L12.5771 16.1714C12.4275 16.3287 12.2138 16.4127 12 16.4127C11.7862 16.4127 11.5725 16.3182 11.4229 16.1714V16.1617L7.24316 12.063C7.00798 11.8324 6.93324 11.4757 7.06152 11.1822C7.18987 10.8888 7.48903 10.69 7.82031 10.69H10.0869C10.1616 10.669 10.2364 10.6158 10.2471 10.5425V4.91168C10.2472 4.0313 11.0273 3.30817 12 3.30817Z" fill="#1D1B20"/>
</g>
<defs>
<clipPath id="clip0_1_3288">
<rect width="24" height="24" fill="white"/>
</clipPath>
</defs>
</svg>

<svg xmlns="http://www.w3.org/2000/svg" width="24" height="24" fill="none" viewBox="0 0 24 24"><g fill="currentColor" clip-path="url(#a)"><path d="M22.455 16.413c.3 0 .545.241.545.535v1.781c0 1.803-1.496 3.27-3.335 3.27H4.335C2.496 22 1 20.533 1 18.73v-1.76c0-.294.246-.535.545-.535h1.443c.3 0 .545.24.545.534v1.437c0 .807.268 1.194 1.743 1.194h13.448c1.485 0 1.743-.387 1.743-1.194v-1.447c0-.294.246-.535.545-.535h1.443zM12 3.308c.962 0 1.742.702 1.753 1.572v5.673c.01.073.085.126.16.147h2.267c.331 0 .63.189.759.493a.8.8 0 0 1-.182.88l-4.18 4.098a.8.8 0 0 1-.577.242.84.84 0 0 1-.577-.242v-.01l-4.18-4.098a.8.8 0 0 1-.181-.88.83.83 0 0 1 .758-.493h2.267c.075-.021.15-.074.16-.147V4.912c0-.88.78-1.604 1.753-1.604"/></g><defs><clipPath id="a"><path fill="currentColor" d="M0 0h24v24H0z"/></clipPath></defs></svg>
